src/images/logo_w.svg

<svg clip-rule="evenodd" fill-rule="evenodd" stroke-linejoin="round" stroke-miterlimit="2" viewBox="0 0 849 153" xmlns="http://www.w3.org/2000/svg"><g fill="#9dc88d"><g fill-rule="nonzero"><path d="m.069-.476h.11v.044c.021-.022.039-.037.054-.045.016-.008.036-.012.06-.012.054 0 .097.024.128.071.034-.047.081-.071.14-.071.107 0 .161.065.161.195v.294h-.111v-.264c0-.046-.005-.078-.016-.097-.012-.019-.03-.029-.056-.029-.031 0-.053.012-.067.035-.013.022-.02.059-.02.109v.246h-.111v-.263c0-.084-.024-.127-.073-.127-.031 0-.053.012-.068.035-.014.023-.021.06-.021.109v.246h-.11z" transform="matrix(95.68649864 0 0 95.68640713 181.478408 105.256901)"/><path d="m.219-.088-.214-.388h.128l.145.274.136-.274h.124l-.379.735h-.125z" transform="matrix(95.68649864 0 0 95.68640713 255.62597 105.256901)"/><path d="m.183-.373v.373h-.11v-.373h-.039v-.103h.039v-.183c0-.06.01-.102.031-.127.029-.035.07-.052.125-.052.02 0 .044.006.074.017v.113l-.011-.006c-.024-.012-.044-.018-.059-.018-.02 0-.033.007-.04.021-.006.013-.01.04-.01.079v.156h.12v.103z" transform="matrix(95.68649864 0 0 95.68640713 307.627641 105.256901)"/><path d="m.42-.476h.11v.476h-.11v-.05c-.045.043-.094.064-.146.064-.066 0-.12-.024-.163-.072s-.064-.109-.064-.181.021-.131.064-.178c.042-.048.096-.072.16-.072.055 0 .105.023.149.069zm-.261.237c0 .045.012.082.037.111s.056.044.095.044c.04 0 .073-.014.098-.042.025-.029.038-.066.038-.111 0-.044-.013-.081-.038-.11-.025-.028-.057-.043-.097-.043-.038 0-.07.015-.095.043-.025.029-.038.065-.038.108z" transform="matrix(95.68649864 0 0 95.68640713 337.482703 105.256901)"/><path d="m.128-.476.123.268.123-.268h.124l-.248.509-.245-.509z" transform="matrix(95.68649864 0 0 95.68640713 395.698456 105.256901)"/><path d="m.047-.241c0-.069.024-.127.074-.176.049-.048.109-.072.179-.072.071 0 .131.024.181.073.049.048.073.108.073.179s-.024.131-.074.179c-.049.048-.11.072-.182.072-.071 0-.131-.025-.179-.074-.048-.048-.072-.108-.072-.181zm.112.002c0 .047.013.085.038.113.026.028.061.042.103.042.043 0 .078-.014.103-.042.026-.028.039-.065.039-.111s-.013-.083-.039-.111-.06-.042-.103-.042c-.042 0-.076.014-.102.042s-.039.064-.039.109z" transform="matrix(95.68649864 0 0 95.68640713 441.952767 105.256901)"/><path d="m.069-.476h.11v.043c.02-.021.038-.036.054-.044s.035-.012.057-.012c.029 0 .059.01.09.029l-.05.1c-.021-.015-.041-.022-.061-.022-.06 0-.09.045-.09.135v.247h-.11z" transform="matrix(95.68649864 0 0 95.68640713 499.46736 105.256901)"/><path d="m.179-.476v.476h-.11v-.476zm-.126-.197c0-.02.007-.036.021-.05s.03-.021.05-.021.037.007.051.021.021.03.021.05-.007.037-.021.051-.031.021-.05.021c-.02 0-.037-.007-.051-.021s-.021-.031-.021-.051z" transform="matrix(95.68649864 0 0 95.68640713 536.705104 105.256901)"/><path d="m.183-.373v.373h-.11v-.373h-.047v-.103h.047v-.174h.11v.174h.085v.103z" transform="matrix(95.68649864 0 0 95.68640713 560.533061 105.256901)"/><path d="m.502-.212h-.34c.003.039.015.07.038.093.022.023.051.035.086.035.027 0 .05-.007.068-.02s.038-.037.06-.072l.093.051c-.014.025-.03.046-.046.063-.016.018-.033.032-.051.043s-.038.02-.059.025-.044.008-.069.008c-.071 0-.128-.023-.171-.069s-.064-.106-.064-.182.021-.136.062-.183c.042-.046.098-.069.167-.069.07 0 .126.023.166.067.041.044.061.106.061.184zm-.112-.09c-.016-.058-.053-.088-.111-.088-.014 0-.026.002-.038.006-.012.005-.022.01-.032.018-.009.008-.018.017-.024.028-.007.01-.012.023-.016.036z" transform="matrix(95.68649864 0 0 95.68640713 587.538175 105.256901)"/><path d="m.42-.825h.11v.825h-.11v-.05c-.043.043-.092.064-.147.064-.065 0-.119-.024-.162-.072s-.064-.109-.064-.181c0-.071.021-.13.064-.178.042-.048.095-.072.16-.072.055 0 .105.023.149.069zm-.261.586c0 .045.012.082.037.111s.056.044.095.044c.04 0 .073-.014.098-.042.025-.029.038-.066.038-.111 0-.044-.013-.081-.038-.11-.025-.028-.057-.043-.097-.043-.038 0-.07.015-.095.043-.025.029-.038.065-.038.108z" transform="matrix(95.68649864 0 0 95.68640713 640.474008 105.256901)"/><path d="m.047-.241c0-.069.024-.127.074-.176.049-.048.109-.072.179-.072.071 0 .131.024.181.073.049.048.073.108.073.179s-.024.131-.074.179c-.049.048-.11.072-.182.072-.071 0-.131-.025-.179-.074-.048-.048-.072-.108-.072-.181zm.112.002c0 .047.013.085.038.113.026.028.061.042.103.042.043 0 .078-.014.103-.042.026-.028.039-.065.039-.111s-.013-.083-.039-.111-.06-.042-.103-.042c-.042 0-.076.014-.102.042s-.039.064-.039.109z" transform="matrix(95.68649864 0 0 95.68640713 697.849087 105.256901)"/><path d="m.529-.011c0 .022 0 .042-.002.059-.001.017-.003.032-.006.045-.008.036-.023.067-.046.093-.043.049-.102.074-.177.074-.064 0-.116-.017-.157-.052-.042-.035-.067-.083-.073-.145h.11c.004.023.011.041.021.054.023.029.056.044.1.044.08 0 .12-.049.12-.148v-.066c-.043.044-.093.067-.15.067-.065 0-.118-.024-.16-.071-.041-.047-.062-.107-.062-.178 0-.069.019-.128.058-.177.042-.051.097-.077.165-.077.06 0 .11.023.149.067v-.054h.11zm-.105-.226c0-.046-.013-.083-.037-.111-.025-.028-.057-.042-.096-.042-.042 0-.075.015-.099.046-.022.028-.033.064-.033.108 0 .043.011.078.033.106.024.03.057.046.099.046s.075-.016.099-.046c.023-.028.034-.064.034-.107z" transform="matrix(95.68649864 0 0 95.68640713 755.363679 105.256901)"/><path d="m.346-.395-.091.049c-.014-.029-.032-.044-.053-.044-.01 0-.019.003-.026.01s-.011.015-.011.026c0 .018.021.036.064.054.058.025.097.048.117.069s.03.05.03.085c0 .046-.016.085-.05.116-.033.029-.073.044-.119.044-.08 0-.137-.039-.17-.117l.094-.043c.013.022.023.037.03.043.013.012.029.019.047.019.038 0 .056-.017.056-.051 0-.02-.014-.038-.043-.055-.011-.005-.022-.011-.033-.016s-.022-.011-.034-.016c-.032-.016-.054-.031-.067-.047-.017-.02-.025-.045-.025-.077 0-.041.014-.075.042-.102.029-.027.065-.041.106-.041.061 0 .106.032.136.094z" transform="matrix(95.68649864 0 0 95.68640713 812.644551 105.256901)"/></g><path d="m795.265 356.019c92.802 155.401 41.98 356.912-113.422 449.715-155.401 92.803-356.912 41.98-449.714-113.421-92.803-155.402-41.981-356.913 113.421-449.715 155.401-92.803 356.912-41.981 449.715 113.421zm-228.516 310.111c1.724 30.212 1.794 45.782-5.098 58.136-13.611 24.399-38.332 26.12-62.745 12.501-10.761-6.003-17.7-9.892-30.16-28.818 0 0-5.569-16.755-32.785-30.536-26.275-16.051-43.534-11.867-43.534-11.867-22.646-.667-29.291-4.5-40.038-10.496-24.412-13.619-35.956-35.552-22.337-59.964 6.892-12.355 20.19-20.449 46.804-34.871 0 0 51.573-29.523 86.439-37.497 25.182-5.742 49.592 7.947 49.592 7.947l7.539 4.206.004-.007s25.544 14.168 32.831 38.041c10.39 34.216 13.484 93.232 13.488 93.225zm127.859-120.795c-13.973-19.182-49.507-17.08-79.385 4.684s-42.765 54.95-28.792 74.133c13.977 19.176 49.511 17.074 79.385-4.683s42.766-54.951 28.792-74.134zm-113.572-15.636c25.523 14.238 64.204-6.459 86.388-46.227 22.185-39.768 19.477-83.554-6.046-97.792s-64.197 6.463-86.382 46.231c-22.184 39.767-19.483 83.55 6.04 97.788zm-190.629-14.9c23.656 1.809 45.124-26.591 47.944-63.44 2.82-36.85-14.065-68.194-37.717-70.01s-45.118 26.594-47.945 63.44c-2.82 36.85 14.069 68.187 37.718 70.01zm83.19-45.035c25.524 14.238 64.197-6.463 86.382-46.231s19.483-83.55-6.04-97.788c-25.523-14.239-64.197 6.463-86.381 46.23-22.185 39.768-19.484 83.551 6.039 97.789z" transform="matrix(.23316796 0 0 .23316779 -43.309429 -45.749695)"/></g></svg>

<?xml version="1.0" encoding="UTF-8" standalone="no"?>
<!DOCTYPE svg PUBLIC "-//W3C//DTD SVG 1.1//EN" "http://www.w3.org/Graphics/SVG/1.1/DTD/svg11.dtd">
<svg width="100%" height="100%" viewBox="0 0 849 153" version="1.1" xmlns="http://www.w3.org/2000/svg" xmlns:xlink="http://www.w3.org/1999/xlink" xml:space="preserve" xmlns:serif="http://www.serif.com/" style="fill-rule:evenodd;clip-rule:evenodd;stroke-linejoin:round;stroke-miterlimit:2;">
    <g transform="matrix(1,0,0,1,-51.2242,-23.2637)">
        <g transform="matrix(0.963978,0,0,0.756768,-12.8631,-270.242)">
            <g transform="matrix(0.746012,0,0,0.950276,211.909,36.4169)">
                <g transform="matrix(133.057,0,0,133.057,57.416,516.178)">
                    <path d="M0.069,-0.476L0.179,-0.476L0.179,-0.432C0.2,-0.454 0.218,-0.469 0.233,-0.477C0.249,-0.485 0.269,-0.489 0.293,-0.489C0.347,-0.489 0.39,-0.465 0.421,-0.418C0.455,-0.465 0.502,-0.489 0.561,-0.489C0.668,-0.489 0.722,-0.424 0.722,-0.294L0.722,-0L0.611,-0L0.611,-0.264C0.611,-0.31 0.606,-0.342 0.595,-0.361C0.583,-0.38 0.565,-0.39 0.539,-0.39C0.508,-0.39 0.486,-0.378 0.472,-0.355C0.459,-0.333 0.452,-0.296 0.452,-0.246L0.452,-0L0.341,-0L0.341,-0.263C0.341,-0.347 0.317,-0.39 0.268,-0.39C0.237,-0.39 0.215,-0.378 0.2,-0.355C0.186,-0.332 0.179,-0.295 0.179,-0.246L0.179,-0L0.069,-0L0.069,-0.476Z" style="fill:rgb(157,200,141);fill-rule:nonzero;"/>
                </g>
                <g transform="matrix(133.057,0,0,133.057,160.522,516.178)">
                    <path d="M0.219,-0.088L0.005,-0.476L0.133,-0.476L0.278,-0.202L0.414,-0.476L0.538,-0.476L0.159,0.259L0.034,0.259L0.219,-0.088Z" style="fill:rgb(157,200,141);fill-rule:nonzero;"/>
                </g>
                <g transform="matrix(133.057,0,0,133.057,232.833,516.178)">
                    <path d="M0.183,-0.373L0.183,-0L0.073,-0L0.073,-0.373L0.034,-0.373L0.034,-0.476L0.073,-0.476L0.073,-0.659C0.073,-0.719 0.083,-0.761 0.104,-0.786C0.133,-0.821 0.174,-0.838 0.229,-0.838C0.249,-0.838 0.273,-0.832 0.303,-0.821L0.303,-0.708L0.292,-0.714C0.268,-0.726 0.248,-0.732 0.233,-0.732C0.213,-0.732 0.2,-0.725 0.193,-0.711C0.187,-0.698 0.183,-0.671 0.183,-0.632L0.183,-0.476L0.303,-0.476L0.303,-0.373L0.183,-0.373Z" style="fill:rgb(157,200,141);fill-rule:nonzero;"/>
                </g>
                <g transform="matrix(133.057,0,0,133.057,274.348,516.178)">
                    <path d="M0.42,-0.476L0.53,-0.476L0.53,-0L0.42,-0L0.42,-0.05C0.375,-0.007 0.326,0.014 0.274,0.014C0.208,0.014 0.154,-0.01 0.111,-0.058C0.068,-0.106 0.047,-0.167 0.047,-0.239C0.047,-0.311 0.068,-0.37 0.111,-0.417C0.153,-0.465 0.207,-0.489 0.271,-0.489C0.326,-0.489 0.376,-0.466 0.42,-0.42L0.42,-0.476ZM0.159,-0.239C0.159,-0.194 0.171,-0.157 0.196,-0.128C0.221,-0.099 0.252,-0.084 0.291,-0.084C0.331,-0.084 0.364,-0.098 0.389,-0.126C0.414,-0.155 0.427,-0.192 0.427,-0.237C0.427,-0.281 0.414,-0.318 0.389,-0.347C0.364,-0.375 0.332,-0.39 0.292,-0.39C0.254,-0.39 0.222,-0.375 0.197,-0.347C0.172,-0.318 0.159,-0.282 0.159,-0.239Z" style="fill:rgb(157,200,141);fill-rule:nonzero;"/>
                </g>
                <g transform="matrix(133.057,0,0,133.057,355.3,516.178)">
                    <path d="M0.128,-0.476L0.251,-0.208L0.374,-0.476L0.498,-0.476L0.25,0.033L0.005,-0.476L0.128,-0.476Z" style="fill:rgb(157,200,141);fill-rule:nonzero;"/>
                </g>
                <g transform="matrix(133.057,0,0,133.057,419.619,516.178)">
                    <path d="M0.047,-0.241C0.047,-0.31 0.071,-0.368 0.121,-0.417C0.17,-0.465 0.23,-0.489 0.3,-0.489C0.371,-0.489 0.431,-0.465 0.481,-0.416C0.53,-0.368 0.554,-0.308 0.554,-0.237C0.554,-0.166 0.53,-0.106 0.48,-0.058C0.431,-0.01 0.37,0.014 0.298,0.014C0.227,0.014 0.167,-0.011 0.119,-0.06C0.071,-0.108 0.047,-0.168 0.047,-0.241ZM0.159,-0.239C0.159,-0.192 0.172,-0.154 0.197,-0.126C0.223,-0.098 0.258,-0.084 0.3,-0.084C0.343,-0.084 0.378,-0.098 0.403,-0.126C0.429,-0.154 0.442,-0.191 0.442,-0.237C0.442,-0.283 0.429,-0.32 0.403,-0.348C0.377,-0.376 0.343,-0.39 0.3,-0.39C0.258,-0.39 0.224,-0.376 0.198,-0.348C0.172,-0.32 0.159,-0.284 0.159,-0.239Z" style="fill:rgb(157,200,141);fill-rule:nonzero;"/>
                </g>
                <g transform="matrix(133.057,0,0,133.057,499.596,516.178)">
                    <path d="M0.069,-0.476L0.179,-0.476L0.179,-0.433C0.199,-0.454 0.217,-0.469 0.233,-0.477C0.249,-0.485 0.268,-0.489 0.29,-0.489C0.319,-0.489 0.349,-0.479 0.38,-0.46L0.33,-0.36C0.309,-0.375 0.289,-0.382 0.269,-0.382C0.209,-0.382 0.179,-0.337 0.179,-0.247L0.179,-0L0.069,-0L0.069,-0.476Z" style="fill:rgb(157,200,141);fill-rule:nonzero;"/>
                </g>
                <g transform="matrix(133.057,0,0,133.057,551.377,516.178)">
                    <path d="M0.179,-0.476L0.179,-0L0.069,-0L0.069,-0.476L0.179,-0.476ZM0.053,-0.673C0.053,-0.693 0.06,-0.709 0.074,-0.723C0.088,-0.737 0.104,-0.744 0.124,-0.744C0.144,-0.744 0.161,-0.737 0.175,-0.723C0.189,-0.709 0.196,-0.693 0.196,-0.673C0.196,-0.653 0.189,-0.636 0.175,-0.622C0.161,-0.608 0.144,-0.601 0.125,-0.601C0.105,-0.601 0.088,-0.608 0.074,-0.622C0.06,-0.636 0.053,-0.653 0.053,-0.673Z" style="fill:rgb(157,200,141);fill-rule:nonzero;"/>
                </g>
                <g transform="matrix(133.057,0,0,133.057,584.511,516.178)">
                    <path d="M0.183,-0.373L0.183,-0L0.073,-0L0.073,-0.373L0.026,-0.373L0.026,-0.476L0.073,-0.476L0.073,-0.65L0.183,-0.65L0.183,-0.476L0.268,-0.476L0.268,-0.373L0.183,-0.373Z" style="fill:rgb(157,200,141);fill-rule:nonzero;"/>
                </g>
                <g transform="matrix(133.057,0,0,133.057,622.063,516.178)">
                    <path d="M0.502,-0.212L0.162,-0.212C0.165,-0.173 0.177,-0.142 0.2,-0.119C0.222,-0.096 0.251,-0.084 0.286,-0.084C0.313,-0.084 0.336,-0.091 0.354,-0.104C0.372,-0.117 0.392,-0.141 0.414,-0.176L0.507,-0.125C0.493,-0.1 0.477,-0.079 0.461,-0.062C0.445,-0.044 0.428,-0.03 0.41,-0.019C0.392,-0.008 0.372,0.001 0.351,0.006C0.33,0.011 0.307,0.014 0.282,0.014C0.211,0.014 0.154,-0.009 0.111,-0.055C0.068,-0.101 0.047,-0.161 0.047,-0.237C0.047,-0.313 0.068,-0.373 0.109,-0.42C0.151,-0.466 0.207,-0.489 0.276,-0.489C0.346,-0.489 0.402,-0.466 0.442,-0.422C0.483,-0.378 0.503,-0.316 0.503,-0.238L0.502,-0.212ZM0.39,-0.302C0.374,-0.36 0.337,-0.39 0.279,-0.39C0.265,-0.39 0.253,-0.388 0.241,-0.384C0.229,-0.379 0.219,-0.374 0.209,-0.366C0.2,-0.358 0.191,-0.349 0.185,-0.338C0.178,-0.328 0.173,-0.315 0.169,-0.302L0.39,-0.302Z" style="fill:rgb(157,200,141);fill-rule:nonzero;"/>
                </g>
                <g transform="matrix(133.057,0,0,133.057,695.673,516.178)">
                    <path d="M0.42,-0.825L0.53,-0.825L0.53,-0L0.42,-0L0.42,-0.05C0.377,-0.007 0.328,0.014 0.273,0.014C0.208,0.014 0.154,-0.01 0.111,-0.058C0.068,-0.106 0.047,-0.167 0.047,-0.239C0.047,-0.31 0.068,-0.369 0.111,-0.417C0.153,-0.465 0.206,-0.489 0.271,-0.489C0.326,-0.489 0.376,-0.466 0.42,-0.42L0.42,-0.825ZM0.159,-0.239C0.159,-0.194 0.171,-0.157 0.196,-0.128C0.221,-0.099 0.252,-0.084 0.291,-0.084C0.331,-0.084 0.364,-0.098 0.389,-0.126C0.414,-0.155 0.427,-0.192 0.427,-0.237C0.427,-0.281 0.414,-0.318 0.389,-0.347C0.364,-0.375 0.332,-0.39 0.292,-0.39C0.254,-0.39 0.222,-0.375 0.197,-0.347C0.172,-0.318 0.159,-0.282 0.159,-0.239Z" style="fill:rgb(157,200,141);fill-rule:nonzero;"/>
                </g>
                <g transform="matrix(133.057,0,0,133.057,775.456,516.178)">
                    <path d="M0.047,-0.241C0.047,-0.31 0.071,-0.368 0.121,-0.417C0.17,-0.465 0.23,-0.489 0.3,-0.489C0.371,-0.489 0.431,-0.465 0.481,-0.416C0.53,-0.368 0.554,-0.308 0.554,-0.237C0.554,-0.166 0.53,-0.106 0.48,-0.058C0.431,-0.01 0.37,0.014 0.298,0.014C0.227,0.014 0.167,-0.011 0.119,-0.06C0.071,-0.108 0.047,-0.168 0.047,-0.241ZM0.159,-0.239C0.159,-0.192 0.172,-0.154 0.197,-0.126C0.223,-0.098 0.258,-0.084 0.3,-0.084C0.343,-0.084 0.378,-0.098 0.403,-0.126C0.429,-0.154 0.442,-0.191 0.442,-0.237C0.442,-0.283 0.429,-0.32 0.403,-0.348C0.377,-0.376 0.343,-0.39 0.3,-0.39C0.258,-0.39 0.224,-0.376 0.198,-0.348C0.172,-0.32 0.159,-0.284 0.159,-0.239Z" style="fill:rgb(157,200,141);fill-rule:nonzero;"/>
                </g>
                <g transform="matrix(133.057,0,0,133.057,855.433,516.178)">
                    <path d="M0.529,-0.011C0.529,0.011 0.529,0.031 0.527,0.048C0.526,0.065 0.524,0.08 0.521,0.093C0.513,0.129 0.498,0.16 0.475,0.186C0.432,0.235 0.373,0.26 0.298,0.26C0.234,0.26 0.182,0.243 0.141,0.208C0.099,0.173 0.074,0.125 0.068,0.063L0.178,0.063C0.182,0.086 0.189,0.104 0.199,0.117C0.222,0.146 0.255,0.161 0.299,0.161C0.379,0.161 0.419,0.112 0.419,0.013L0.419,-0.053C0.376,-0.009 0.326,0.014 0.269,0.014C0.204,0.014 0.151,-0.01 0.109,-0.057C0.068,-0.104 0.047,-0.164 0.047,-0.235C0.047,-0.304 0.066,-0.363 0.105,-0.412C0.147,-0.463 0.202,-0.489 0.27,-0.489C0.33,-0.489 0.38,-0.466 0.419,-0.422L0.419,-0.476L0.529,-0.476L0.529,-0.011ZM0.424,-0.237C0.424,-0.283 0.411,-0.32 0.387,-0.348C0.362,-0.376 0.33,-0.39 0.291,-0.39C0.249,-0.39 0.216,-0.375 0.192,-0.344C0.17,-0.316 0.159,-0.28 0.159,-0.236C0.159,-0.193 0.17,-0.158 0.192,-0.13C0.216,-0.1 0.249,-0.084 0.291,-0.084C0.333,-0.084 0.366,-0.1 0.39,-0.13C0.413,-0.158 0.424,-0.194 0.424,-0.237Z" style="fill:rgb(157,200,141);fill-rule:nonzero;"/>
                </g>
                <g transform="matrix(133.057,0,0,133.057,935.085,516.178)">
                    <path d="M0.346,-0.395L0.255,-0.346C0.241,-0.375 0.223,-0.39 0.202,-0.39C0.192,-0.39 0.183,-0.387 0.176,-0.38C0.169,-0.373 0.165,-0.365 0.165,-0.354C0.165,-0.336 0.186,-0.318 0.229,-0.3C0.287,-0.275 0.326,-0.252 0.346,-0.231C0.366,-0.21 0.376,-0.181 0.376,-0.146C0.376,-0.1 0.36,-0.061 0.326,-0.03C0.293,-0.001 0.253,0.014 0.207,0.014C0.127,0.014 0.07,-0.025 0.037,-0.103L0.131,-0.146C0.144,-0.124 0.154,-0.109 0.161,-0.103C0.174,-0.091 0.19,-0.084 0.208,-0.084C0.246,-0.084 0.264,-0.101 0.264,-0.135C0.264,-0.155 0.25,-0.173 0.221,-0.19C0.21,-0.195 0.199,-0.201 0.188,-0.206C0.177,-0.211 0.166,-0.217 0.154,-0.222C0.122,-0.238 0.1,-0.253 0.087,-0.269C0.07,-0.289 0.062,-0.314 0.062,-0.346C0.062,-0.387 0.076,-0.421 0.104,-0.448C0.133,-0.475 0.169,-0.489 0.21,-0.489C0.271,-0.489 0.316,-0.457 0.346,-0.395Z" style="fill:rgb(157,200,141);fill-rule:nonzero;"/>
                </g>
            </g>
        </g>
        <g transform="matrix(0.963978,0,0,0.756768,-12.8631,-270.242)">
            <g transform="matrix(0.241881,0,0,0.30811,21.5543,327.387)">
                <path d="M795.265,356.019C888.067,511.42 837.245,712.931 681.843,805.734C526.442,898.537 324.931,847.714 232.129,692.313C139.326,536.911 190.148,335.4 345.55,242.598C500.951,149.795 702.462,200.617 795.265,356.019ZM566.749,666.13C568.473,696.342 568.543,711.912 561.651,724.266C548.04,748.665 523.319,750.386 498.906,736.767C488.145,730.764 481.206,726.875 468.746,707.949C468.746,707.949 463.177,691.194 435.961,677.413C409.686,661.362 392.427,665.546 392.427,665.546C369.781,664.879 363.136,661.046 352.389,655.05C327.977,641.431 316.433,619.498 330.052,595.086C336.944,582.731 350.242,574.637 376.856,560.215C376.856,560.215 428.429,530.692 463.295,522.718C488.477,516.976 512.887,530.665 512.887,530.665L520.426,534.871L520.43,534.864C520.43,534.864 545.974,549.032 553.261,572.905C563.651,607.121 566.745,666.137 566.749,666.13ZM694.608,545.335C680.635,526.153 645.101,528.255 615.223,550.019C585.345,571.783 572.458,604.969 586.431,624.152C600.408,643.328 635.942,641.226 665.816,619.469C695.69,597.712 708.582,564.518 694.608,545.335ZM581.036,529.699C606.559,543.937 645.24,523.24 667.424,483.472C689.609,443.704 686.901,399.918 661.378,385.68C635.855,371.442 597.181,392.143 574.996,431.911C552.812,471.678 555.513,515.461 581.036,529.699ZM390.407,514.799C414.063,516.608 435.531,488.208 438.351,451.359C441.171,414.509 424.286,383.165 400.634,381.349C376.982,379.533 355.516,407.943 352.689,444.789C349.869,481.639 366.758,512.976 390.407,514.799ZM473.597,469.764C499.121,484.002 537.794,463.301 559.979,423.533C582.164,383.765 579.462,339.983 553.939,325.745C528.416,311.506 489.742,332.208 467.558,371.975C445.373,411.743 448.074,455.526 473.597,469.764Z" style="fill:rgb(157,200,141);"/>
            </g>
        </g>
    </g>
</svg>
